src/assets/img/approved.svg

<svg width="20" height="20" viewBox="0 0 20 20" fill="none" xmlns="http://www.w3.org/2000/svg">
<path fill-rule="evenodd" clip-rule="evenodd" d="M0 10C0 4.47715 4.47715 0 10 0C15.5228 0 20 4.47715 20 10C20 15.5228 15.5228 20 10 20C4.47715 20 0 15.5228 0 10ZM10 1.33333C5.21353 1.33333 1.33333 5.21353 1.33333 10C1.33333 14.7865 5.21353 18.6667 10 18.6667C14.7865 18.6667 18.6667 14.7865 18.6667 10C18.6667 5.21353 14.7865 1.33333 10 1.33333ZM15.1872 7.08313L9.42904 14.2809L4.90654 10.5121L5.76012 9.48785L9.23763 12.3858L14.1461 6.2502L15.1872 7.08313Z" fill="#97EAB9"/>
</svg>

<svg width="20" height="20" viewBox="0 0 20 20" xmlns="http://www.w3.org/2000/svg"><path d="M0 10C0 4.477 4.477 0 10 0s10 4.477 10 10-4.477 10-10 10S0 15.523 0 10zm10-8.667a8.667 8.667 0 1 0 0 17.334 8.667 8.667 0 0 0 0-17.334zm5.187 5.75L9.43 14.281l-4.522-3.769.853-1.024 3.478 2.898 4.908-6.136 1.041.833z" fill="#97EAB9"/></svg>
